assets/home-fill.svg

<svg xmlns="http://www.w3.org/2000/svg" fill="none" viewBox="0 0 29 26">
  <path fill="#2A2238" d="m15 5 11.2583 6H3.74167L15 5Z"/>
  <path fill="#2A2238" stroke="#2A2238" d="M15 3 1 11V9l14-8 13.5 8v1.5L15 3Z"/>
  <path fill="#2A2238" d="M4 26V11h22v15h-7v-9h-8v9H4Z"/>
</svg>

<svg width="29" height="26" viewBox="0 0 29 26" fill="none" xmlns="http://www.w3.org/2000/svg">
<path d="M15 5L26.2583 11H3.74167L15 5Z" fill="#2A2238"/>
<path d="M15 3L1 11V9L15 1L28.5 9V10.5L15 3Z" fill="#2A2238" stroke="#2A2238"/>
<path d="M4 26V11H26V26H19V17H11V26H4Z" fill="#2A2238"/>
</svg>
